**kern
*clefC3
*k[f#c#g#]
*M3/4
=1-
2A
16r
8r
16B
=2
4r
16c#
8cn
4d
16e
=3
4e
4f#
16f#
8g#
(16a
=4
8.r
4a
4b
16a
=5
8g#
(4a
16b#)
4a#
(16b#
=6
4b)
4b
8.a
16g#
=7
8a
(4a
8b)
8b
8b 8g#
=8
16b
(8a
16a)
4g#
16r
8r
16f#
=9
2r
16f#
16f#
16e
16e
=10
8d
8d
16c#
4B
16B
16A
16B
=11
*-